X:1
T:Seria's Gate
T:Seria's Gate - Epilogue
T:Where I Lost My Path
%%score { 1 | 2 }
L:1/8
Q:1/4=120
M:4/4
K:Ab
V:1 treble nm="Piano" snm="Pno."
V:2 bass 
V:1
!mf! F2 [Cc] [EB]2 [FA]2 G- | G3 E3 AB | E2 B A2 G3 | !arpeggio![EG]4 [DE_G]4 | [DF]Aa a'2 Aaa' | %5
 c2 d c2 A3 | [EAB]e!8va(!e' e''2!8va)! ee'e | [G,B,E]8 | C/D/[B,E] E[B,E] [B,E]B,D[B,E]- | %9
 [B,E]B,[A,D] [B,E]2 B,FE | CEA[Ge] e!8va(!e'e'e''- | e''!8va)![CE][EA]G E A2 C/D/ | %12
 [A,DE][B,E][A,E][B,E] [F,A,DE]B,D[F,B,E] | [A,D][F,B,E][A,DEA] [B,B]2 [Cc]2 B, | %14
 B[B,E][EA][Be] e!8va(!e'e'e''!8va)! | [CEGc] A2 [B,EGB]3 [G,B,EG]2 | [A,CFA]4 [A,DF]3 E/D/ | %17
 [B,CEA]/ B2- B/A [EGc]/AB/ G[EG] | [CDFA]3 F3 [EG][FA] | [CEGB]3/2[FA]3/2[GB] [CFAc]4 | %20
 [DFA]2 DD [DFA]2 [CEG]2 | [B,F]2 =D2 [B,FB]2 A2 | [B,EA]4 [EA] [EB]2 [EA] | %23
 [G,B,EG]15/4!f! [Bb]/4 [cc']3/2[Bb]3/2[Aa] | [Fdf]2 [cc'][Bb] [df] [Aa]2 [Gg] | %25
 [EGB]2 c B2 [Aa][Bb][Ff] | [EFBe]2 [EGe][EGe] E2 [Cc]2 | [GBeg]2 B [Aca]2 [EAce]2 [DABd]- | %28
 [DABd]4 [DAd]3/2[Ee]3/2[Ff] | [EAde]2 [Aa][Bb] [Gd]2 [Ada]2 | [CGc]2 [EAB] [EGc]2 [CE]A[B,E] | %31
 [D_GBd]15/4 b/4 [cec']3/2[Bdb]3/2[Aca] | [FAcf]2 [cc'] [Bb]2 [Aca]2 [GBg] | %33
 [EGBc]2 [Aa] [Gg]2 [Aa][Bb][ff'] | [efgbe']4 [d=egbd']4 | [ceac']2 A2 [Ee]2 [Ff][Ee] | %36
 [DFAd]2 [Dd][Ee] [EGBe]2 [EGe][FBf] | [FAcf]4 [CFA]2 [Ff][Ee] | %38
 [FAcf]2 [Ff][Gg] [GBeg]2 [Gg][Aa] | [Acea]2 [Bb] [Aa]2 [Gg] (3[EG]Fc | [FAcf]3 E [CF]4 | %41
 [_FA_c_f]3 [Bfb]3 [Afa]2 | [GBeg]2 a [GBeg]2 e [A_c=dfa]2- | [Acdfa] [=DFA_c]3 _C[DF][DA][DB] | %44
 [DFAc]2 [Ad] [DAc]2 F!ped! [FA]"_dim."(5:4:5D/4E/4F/4A/4B/4!ped-up! | %45
!f! [Fc]2 [Fd] [Fc]2 [DF][DFA][DFB] | [FBdf] [FBdf]3 [E_GBe]4 | [=D_GA=d]4 [EAe]4 | %48
 [CFAc]3 [FAcf]3 [Acfg]2- | [Acfg] [Acfa]3 [F_c=df]2 [Gg]2 | [EGBf]eE [EBe]2 c [Adea]2- | %51
 [Adea]4 d'/c'/[ea]/e/ [da]/c/[Ab] | [cfc']3 [Beb]3 [Acfa]2- | [Acfa] [FAcf]3 [GBg]2 [Aca]2 | %54
 [ABdfb]3 [ABdfb] z2 !arpeggio![FGBde]2- | [FGBde]8 |] %56
V:2
 D, A,6- A, | D,G, B,6 | D,G, B,6 | !arpeggio![F,B,C]4 =A,4 | [B,,B,]2 C D4- D- | D6 B,,D, | %6
 E,,B,,E, [A,B,]2 C,A,[F,B,] | [E,,E,]8 | [D,,D,]6 D,2 | [D,,D,]4 F,2 A,,[B,,B,] | %10
 C,B,CB, A, [B,EA]2 [B,E] | [C,A,B,]2 B,2 A,3 A,, | D,,4 D,2 D,,2 | D,,3 F, A,F,D,,E,, | %14
 F,,3 B, [F,A,C]3 C, | [F,,F,]3 E, E,,3 B,, | D,,A,,D,F, D,2 A,,B,, | [C,,C,]2 B,2 [E,A,]4 | %18
 [D,A,]3 D, [F,A,C]2 D,,E,, | [F,,F,]4 [E,,E,]2 E,E,, | [B,,B,]F, B,2 [F,A,]2 A,,D, | %21
 [=D,,=D,]3 D,, D,3 B,, | [E,,E,]2 E, E,,2 [E,,E,]2 B,,, | [E,,,E,,]8 | %24
 [D,,A,,D,]2 [D,F,A,]A,, [F,A,]A,,D,A,, | [E,,B,,E,]2 E,B,, [E,A,B,]2 A,,D, | %26
 [C,,E,]2 E,2 [A,B,]C,A,,C,, | [F,,F,]2 C, [F,A,]2 F,, A,,2 | [B,,,B,,]2 B,,D, [F,A,]B,,D,D, | %29
 E,,B,,E,B,, [E,G,B,]2 E,B,, | [A,,,A,,]2 E,A,, E,E,,A,,_G,, | E,,E,_G,E,, [A,,,A,,]2 A,,A,,, | %32
 [=D,,=D,]2 D,,D, [F,A,C]A,,D,A,, | [D,,D,]2 D,A,, [E,A,]A,,D,D,, | %34
 [C,,C,]2 C,C,, [=E,,=E,]C,E,E,, | [F,,C,F,] B,2 B, [F,,F,]C,F,,C,, | %36
 [B,,,B,,]2 B,,B,,, [C,,C,]2 C,C,, | [D,,D,]2 D,D,, [D,A,]2 A,,C, | [D,,D,]4 [C,,C,]4 | %39
 [B,,,B,,]F,,[B,,,B,,] z [C,E,A,B,]2 [D,A,]2 | [=D,,=D,]3 [D,A,] A,A,,C,A,, | %41
 [D,_C]2 D, [A,C]2 A,,[D,A,]A,, | [C,B,]2 G, [C,B,]2 C, [_C,,_C,]2 | _C,,_C,C,,C, [F,A,]C,F,,C,, | %44
 [B,,,B,,]2 F,, [A,,D,]3 B,,F,, | F,A,,B,,E,, F,,B,,F,,B,,, | %46
 [E,,E,]2 _G,E,/E,,/ [_G,,D,]B,,E,,B,, | [A,,,A,,] A,,,2 E,, [A,,E,]E,,_G,,E,, | %48
 [D,,D,]2 A,, [D,,D,]2 A,, [=D,,=D,]2 | =D,,2 =D,D,, [G,,,G,,]2 D,G,, | %50
 [C,,C,]2 E, [C,,C,]3 [F,,F,]2- | [F,,F,]E,F,B,, C,E,,F,,B,,, | %52
 [B,,,B,,]2 B,,, [C,,C,]2 C,, [D,,D,]2 | A,,[D,,D,]A,,[D,,D,] A,,D,,A,,,D,, | %54
 [E,,E,]3 [E,,E,] z2 !arpeggio![E,,E,]2- | [E,,E,]8 |] %56

